z_dist/img/icons/crypto/harmony-ONE.svg

<svg width="64" height="64" viewBox="0 0 64 64" fill="none" xmlns="http://www.w3.org/2000/svg">
<rect y="0.000244141" width="64" height="64" rx="4" fill="#E7EFF3"/>
<path fill-rule="evenodd" clip-rule="evenodd" d="M41.0969 16.0002C37.2912 15.9973 34.2018 19.0764 34.192 22.882V30.5122C33.4809 30.5602 32.7538 30.5905 32 30.5905C31.2462 30.5905 30.5227 30.6207 29.808 30.6634V22.882C29.7475 19.1122 26.6743 16.0879 22.904 16.0879C19.1337 16.0879 16.0605 19.1122 16 22.882V41.1185C16.0605 44.8883 19.1337 47.9126 22.904 47.9126C26.6743 47.9126 29.7475 44.8883 29.808 41.1185V33.4882C30.5191 33.4402 31.2462 33.41 32 33.41C32.7538 33.41 33.4773 33.3798 34.192 33.3371V41.1185C34.2525 44.8883 37.3257 47.9126 41.096 47.9126C44.8663 47.9126 47.9395 44.8883 48 41.1185V22.882C47.9902 19.0771 44.9019 15.9983 41.0969 16.0002ZM22.9035 18.8199C25.1494 18.8189 26.9723 20.6362 26.9782 22.8821V30.9621C24.9582 31.2548 22.9857 31.8125 21.1115 32.6208C20.2995 32.9772 19.535 33.4334 18.8359 33.979V22.8821C18.8418 20.639 20.6603 18.8228 22.9035 18.8199ZM22.9028 45.1931C25.1532 45.1931 26.9775 43.3688 26.9775 41.1184V33.8082C25.3523 34.0733 23.7659 34.5372 22.2539 35.1895C20.1081 36.1424 18.8281 37.6731 18.8281 39.2891V41.1184C18.8281 43.3688 20.6524 45.1931 22.9028 45.1931ZM41.0981 45.1808C38.8522 45.1818 37.0293 43.3645 37.0234 41.1186V33.0386C39.0434 32.7459 41.0159 32.1882 42.8901 31.3799C43.7021 31.0236 44.4665 30.5673 45.1657 30.0217V41.1186C45.1598 43.3618 43.3413 45.1779 41.0981 45.1808ZM37.0234 30.1818C38.6486 29.9166 40.235 29.4527 41.747 28.8004C43.8928 27.8511 45.1728 26.3204 45.1728 24.7115V22.8822C45.1728 20.6318 43.3485 18.8075 41.0981 18.8075C38.8477 18.8075 37.0234 20.6318 37.0234 22.8822V30.1818Z" fill="url(#paint0_linear_574_708784)"/>
<defs>
<linearGradient id="paint0_linear_574_708784" x1="31.9469" y1="59.4169" x2="59.7105" y2="31.5765" gradientUnits="userSpaceOnUse">
<stop stop-color="#00AEE9"/>
<stop offset="1" stop-color="#69FABD"/>
</linearGradient>
</defs>
</svg>

<svg width="64" height="64" fill="none" xmlns="http://www.w3.org/2000/svg"><rect width="64" height="64" rx="4" fill="#E7EFF3"/><path fill-rule="evenodd" clip-rule="evenodd" d="M41.097 16a6.9 6.9 0 00-6.905 6.882v7.63A32.4 32.4 0 0132 30.59c-.754 0-1.477.03-2.192.073v-7.781a6.905 6.905 0 00-13.808 0v18.236a6.905 6.905 0 0013.808 0v-7.63A32.405 32.405 0 0132 33.41c.754 0 1.477-.03 2.192-.073v7.781a6.905 6.905 0 0013.808 0V22.882A6.9 6.9 0 0041.097 16zm-18.194 2.82a4.073 4.073 0 014.075 4.062v8.08a23.22 23.22 0 00-5.867 1.659c-.812.356-1.576.812-2.275 1.358V22.882a4.073 4.073 0 014.068-4.062zm0 26.373a4.075 4.075 0 004.075-4.075v-7.31a20.089 20.089 0 00-4.724 1.382c-2.146.952-3.426 2.483-3.426 4.1v1.828a4.075 4.075 0 004.075 4.075zm18.195-.012a4.073 4.073 0 01-4.075-4.062v-8.08c2.02-.293 3.993-.85 5.867-1.66a10.665 10.665 0 002.276-1.357v11.097a4.073 4.073 0 01-4.068 4.062zm-4.075-15a20.094 20.094 0 004.724-1.38c2.146-.95 3.426-2.48 3.426-4.09v-1.829a4.075 4.075 0 10-8.15 0v7.3z" fill="url(#paint0_linear_574_708784)"/><defs><linearGradient id="paint0_linear_574_708784" x1="31.947" y1="59.417" x2="59.711" y2="31.576" gradientUnits="userSpaceOnUse"><stop stop-color="#00AEE9"/><stop offset="1" stop-color="#69FABD"/></linearGradient></defs></svg>
